icons/tooth.svg

<svg
  xmlns="http://www.w3.org/2000/svg"
  width="24"
  height="24"
  viewBox="0 0 24 24"
  fill="none"
  stroke="currentColor"
  stroke-width="2"
  stroke-linecap="round"
  stroke-linejoin="round"
>
  <path d="M7.39121 3.12683C6.54921 3.29683 5.85221 3.77883 5.33621 4.63083C4.32621 6.28183 4.25221 9.27483 5.57821 11.7348C5.65408 11.8707 5.71382 12.0151 5.75621 12.1648C6.20821 13.8408 6.67021 17.2108 7.33921 19.8748C7.73921 21.4708 9.03021 21.1398 9.27921 19.5128C9.73521 16.5418 10.6192 13.6508 11.9872 13.6508C13.3542 13.6508 14.2402 16.5428 14.6962 19.5128C14.9462 21.1408 16.2362 21.4728 16.6362 19.8758C17.3062 17.2098 17.7662 13.8378 18.2182 12.1638C18.2608 12.0147 18.3205 11.8711 18.3962 11.7358C19.7862 9.16783 19.6542 6.28383 18.6372 4.62583C18.1152 3.77716 17.4295 3.27683 16.5802 3.12483C15.8682 3.00283 15.0832 3.14483 14.2782 3.53883C13.561 3.88039 12.7766 4.05763 11.9822 4.05763C11.1878 4.05763 10.4034 3.88039 9.68621 3.53883C9.06721 3.23683 7.97821 3.00883 7.39121 3.12683Z" />
</svg>

<svg
  xmlns="http://www.w3.org/2000/svg"
  width="24"
  height="24"
  viewBox="0 0 24 24"
  fill="none"
  stroke="currentColor"
  stroke-width="2"
  stroke-linecap="round"
  stroke-linejoin="round"
>
  <path d="M7.391 3.127c-.842.17-1.539.652-2.055 1.504-1.01 1.65-1.084 4.644.242 7.104a2 2 0 0 1 .178.43c.452 1.676.914 5.046 1.583 7.71.4 1.596 1.691 1.265 1.94-.362.456-2.971 1.34-5.862 2.708-5.862 1.367 0 2.253 2.892 2.71 5.862.25 1.628 1.54 1.96 1.94.363.67-2.666 1.13-6.038 1.581-7.712a2 2 0 0 1 .178-.428c1.39-2.568 1.258-5.452.241-7.11q-.782-1.274-2.057-1.501c-.712-.122-1.497.02-2.302.414a5.34 5.34 0 0 1-4.592-.001c-.619-.301-1.708-.53-2.295-.411" />
</svg>
